svgs/solid/face-smirking.svg

<svg xmlns="http://www.w3.org/2000/svg" viewBox="0 0 512 512"><!--! Font Awesome Pro 6.2.0 by @fontawesome - https://fontawesome.com License - https://fontawesome.com/license (Commercial License) Copyright 2022 Fonticons, Inc. --><path d="M512 256c0 141.4-114.6 256-256 256S0 397.4 0 256S114.6 0 256 0S512 114.6 512 256zM96 208c0 8.8 7.2 16 16 16h32c0 17.7 14.3 32 32 32s32-14.3 32-32s-14.3-32-32-32H112c-8.8 0-16 7.2-16 16zM375.8 338.6c1.5-8.7-4.4-17-13.2-18.4s-17 4.4-18.4 13.2l-.2 1.2c-3.2 19.3-19.9 33.4-39.5 33.4H192c-8.8 0-16 7.2-16 16s7.2 16 16 16H304.6c35.2 0 65.2-25.4 71-60.2l.2-1.2zM288 208c0 8.8 7.2 16 16 16h32c0 17.7 14.3 32 32 32s32-14.3 32-32s-14.3-32-32-32H304c-8.8 0-16 7.2-16 16z"/></svg>

<svg xmlns="http://www.w3.org/2000/svg" viewBox="0 0 512 512"><!--! Font Awesome Pro 6.1.2 by @fontawesome - https://fontawesome.com License - https://fontawesome.com/license (Commercial License) Copyright 2022 Fonticons, Inc. --><path d="M512 256C512 397.4 397.4 512 256 512C114.6 512 0 397.4 0 256C0 114.6 114.6 0 256 0C397.4 0 512 114.6 512 256zM112 224H144C144 241.7 158.3 256 176 256C193.7 256 208 241.7 208 224C208 206.3 193.7 192 176 192H112C103.2 192 96 199.2 96 208C96 216.8 103.2 224 112 224zM375.8 338.6C377.2 329.9 371.3 321.7 362.6 320.2C353.9 318.8 345.7 324.7 344.2 333.4L344 334.6C340.8 353.9 324.1 368 304.6 368H192C183.2 368 176 375.2 176 384C176 392.8 183.2 400 192 400H304.6C339.8 400 369.8 374.6 375.6 339.8L375.8 338.6zM304 224H336C336 241.7 350.3 256 368 256C385.7 256 400 241.7 400 224C400 206.3 385.7 192 368 192H304C295.2 192 288 199.2 288 208C288 216.8 295.2 224 304 224z"/></svg>
